X: 4
T: The High
R: reel
M: 4/4
L: 1/8
K: Amaj
e | a2 e<a c>AA>a | c<Ae>A c>AA>e | =g2 f<g a>ef>d | B<=Gd>G B>GG ||a | c<Ae>A f>Ae>d | c<Ae>A c>AA>a |


Tune 44	Setting 12468

